X:3750
T:Dancing Eyes
R:Jig
S:
C: Sean Ryan
H:
N:
D:
Z:Adrian Scahill
M:6/8
L:1/8
K:G
G,B,D GBd|c2A BAG|AFD fed|cAG FDC|\
B,CD GBd|cAG FGA|d3 fed|cAF G3:||\
GBd g3|fag fdc|B2d cAA|BAG AFD|\
GBd g3|fag fdc|B/2c/2dB cAA|AGF G3:||
% These tunes have been compiled and transcribed by Adrian Scahill. 
% They are free for personal use only, and may not be published 
% or reproduced for profit. 
% 
% This file may not be included on a web page for download without
% permission from me. 
%
% I have not generally included ornamentation or variations - and each
% tune is notated as closely as possible to the player's performance. 
% Following from this I have not tried to 'correct' what may be variations,
% wayward versions, instrument-specific quirks etc. 
% 
% I have listed the sources that I know or remember, and have included
% a discography where relevant. 
%
% Last Updated: June 1999.
%
% Questions, Info: Email - adrian@continuo.freeserve.co.uk
% 
%
